icons/health-book-line.svg

<svg xmlns="http://www.w3.org/2000/svg" width="24" height="24" fill="none"><g clip-path="url(#a)"><g><path fill="#121212" d="M20 2C20.552 2 21 2.448 21 3V21C21 21.552 20.552 22 20 22H6C5.448 22 5 21.552 5 21V19H3V17H5V15H3V13H5V11H3V9H5V7H3V5H5V3C5 2.448 5.448 2 6 2H20ZM19 4H7V20H19V4ZM14 8V11H17V13H13.999L14 16H12L11.999 13H9V11H12V8H14Z"/></g></g><defs><clipPath id="a"><rect width="24" height="24" fill="white"/></clipPath></defs></svg>

<svg width="24" height="24" fill="none" xmlns="http://www.w3.org/2000/svg"><g clip-path="url(#a)"><path d="M20 2a1 1 0 0 1 1 1v18a1 1 0 0 1-1 1H6a1 1 0 0 1-1-1v-2H3v-2h2v-2H3v-2h2v-2H3V9h2V7H3V5h2V3a1 1 0 0 1 1-1h14Zm-1 2H7v16h12V4Zm-5 4v3h3v2h-3.001L14 16h-2l-.001-3H9v-2h3V8h2Z" /></g><defs><clipPath id="a"><path fill="#fff" d="M0 0h24v24H0z"/></clipPath></defs></svg>
